Numix/22/status/pushbullet-indicator-sync1-light.svg

<?xml version="1.0" encoding="UTF-8" standalone="no"?>
<!-- Created with Inkscape (http://www.inkscape.org/) -->

<svg
   xmlns:dc="http://purl.org/dc/elements/1.1/"
   xmlns:cc="http://creativecommons.org/ns#"
   xmlns:rdf="http://www.w3.org/1999/02/22-rdf-syntax-ns#"
   xmlns:svg="http://www.w3.org/2000/svg"
   xmlns="http://www.w3.org/2000/svg"
   xmlns:sodipodi="http://sodipodi.sourceforge.net/DTD/sodipodi-0.dtd"
   xmlns:inkscape="http://www.inkscape.org/namespaces/inkscape"
   id="svg3039"
   version="1.1"
   inkscape:version="0.91 r"
   width="22"
   height="22"
   sodipodi:docname="pushbullet-indicator-sync3-light.svg">
  <metadata
     id="metadata3045">
    <rdf:RDF>
      <cc:Work
         rdf:about="">
        <dc:format>image/svg+xml</dc:format>
        <dc:type
           rdf:resource="http://purl.org/dc/dcmitype/StillImage" />
        <dc:title />
      </cc:Work>
    </rdf:RDF>
  </metadata>
  <defs
     id="defs3043">
    <clipPath
       id="clipPath-408241621">
      <g
         id="g3616"
         transform="translate(0,-1004.3622)">
        <path
           id="path3618"
           transform="matrix(15.333333,0,0,11.5,414.99999,878.8622)"
           d="m -24,13 c 0,1.105 -0.672,2 -1.5,2 -0.828,0 -1.5,-0.895 -1.5,-2 0,-1.105 0.672,-2 1.5,-2 0.828,0 1.5,0.895 1.5,2 z"
           inkscape:connector-curvature="0"
           style="fill:#1890d0" />
      </g>
    </clipPath>
  </defs>
  <sodipodi:namedview
     pagecolor="#ffffff"
     bordercolor="#666666"
     borderopacity="1"
     objecttolerance="10"
     gridtolerance="10"
     guidetolerance="10"
     inkscape:pageopacity="0"
     inkscape:pageshadow="2"
     inkscape:window-width="1366"
     inkscape:window-height="747"
     id="namedview3041"
     showgrid="true"
     inkscape:zoom="5.6568543"
     inkscape:cx="-40.729082"
     inkscape:cy="11.367024"
     inkscape:window-x="0"
     inkscape:window-y="21"
     inkscape:window-maximized="1"
     inkscape:current-layer="svg3039">
    <inkscape:grid
       type="xygrid"
       id="grid4133" />
  </sodipodi:namedview>
  <rect
     style="opacity:1;fill:#ececec;fill-opacity:1;fill-rule:nonzero;stroke:none;stroke-width:6;stroke-linecap:round;stroke-linejoin:bevel;stroke-miterlimit:4;stroke-dasharray:none;stroke-dashoffset:0;stroke-opacity:1"
     id="rect4135"
     width="4"
     height="12"
     x="3"
     y="5"
     rx="0.5"
     ry="0.42857143" />
  <path
     style="opacity:1;fill:#ececec;fill-opacity:1;fill-rule:nonzero;stroke:none;stroke-width:6;stroke-linecap:round;stroke-linejoin:bevel;stroke-miterlimit:4;stroke-dasharray:none;stroke-dashoffset:0;stroke-opacity:1"
     d="M 8.4472656,5 C 8.1990607,5 8,5.327355 8,5.734375 l 0,10.53125 C 8,16.672645 8.1990607,17 8.4472656,17 L 13,17 A 6,6 0 0 0 19,11 6,6 0 0 0 13,5 L 8.4472656,5 Z M 11.484375,6.5175781 13.8125,7.207031 12.583984,9.492188 12.240234,8.607422 C 11.340442,9.030427 10.751953,9.962308 10.751953,11 c 0,1.086646 0.628686,2.054366 1.595703,2.457031 l -0.474609,1.228516 C 10.422692,14.080859 9.4804688,12.630658 9.4804688,11 c 0,-1.581014 0.9242012,-3.025824 2.3066402,-3.642578 L 11.484375,6.5175781 Z m 3.167969,0.7968749 c 1.4507,0.582624 2.414062,2.058681 2.414062,3.685547 0,1.588943 -0.897316,3.012379 -2.283203,3.642578 l 0.322266,0.839844 -2.392578,-0.689453 1.271484,-2.285157 0.345703,0.884766 C 15.233663,12.964401 15.794922,12.044586 15.794922,11 c 0,-1.084577 -0.646837,-2.066432 -1.615234,-2.457031 l 0.472656,-1.228516 z"
     id="rect4168"
     inkscape:connector-curvature="0" />
  <g
     id="g4220"
     transform="matrix(0,1,-1,0,21.163674,-3.6838069)">
    <g
       style="fill:#ececec;fill-opacity:1"
       id="g3628"
       transform="matrix(0.34782609,0,0,0.34782609,2.6435901,2.6456559)" />
    <g
       transform="matrix(0.49988464,0,0,0.49988464,-37.411065,7.9950011)"
       clip-path="url(#clipPath-408241621)"
       id="g3650">
      <!-- color: #004794 -->
      <g
         id="g3652" />
    </g>
  </g>
</svg>

<!-- Created with Inkscape (http://www.inkscape.org/) -->
<svg xmlns="http://www.w3.org/2000/svg" viewBox="0 0 22 22">
 <rect width="4" height="12" x="3" y="5" rx="0.5" ry="0.429" style="fill:#ececec;opacity:1;fill-opacity:1;stroke:none;fill-rule:nonzero"/>
 <path d="m 8.447 5 c -0.248 0 -0.447 0.327 -0.447 0.734 l 0 10.531 c 0 0.407 0.199 0.734 0.447 0.734 l 4.553 0 a 6 6 0 0 0 6 -6 6 6 0 0 0 -6 -6 l -4.553 0 m 3.037 1.518 2.328 0.689 -1.229 2.285 -0.344 -0.885 c -0.9 0.423 -1.488 1.355 -1.488 2.393 c 0 1.087 0.629 2.054 1.596 2.457 l -0.475 1.229 c -1.45 -0.605 -2.393 -2.055 -2.393 -3.686 c 0 -1.581 0.924 -3.03 2.307 -3.643 l -0.303 -0.84 m 3.168 0.797 c 1.451 0.583 2.414 2.059 2.414 3.686 0 1.589 -0.897 3.01 -2.283 3.643 l 0.322 0.84 -2.393 -0.689 1.271 -2.285 0.346 0.885 c 0.904 -0.428 1.465 -1.348 1.465 -2.393 c 0 -1.085 -0.647 -2.066 -1.615 -2.457 l 0.473 -1.229 z" style="fill:#ececec;opacity:1;fill-opacity:1;stroke:none;fill-rule:nonzero"/>
 <g transform="matrix(0,1,-1,0,21.163674,-3.6838069)">
  <g transform="matrix(0.49988464,0,0,0.49988464,-37.411065,7.9950011)">
   <!-- color: #004794 -->
  </g>
 </g>
</svg>
